X:1

T: Road to Recess

S: Mike Reynolds

N: Appears to be a setting of "The Hare's Paw"

Q: 350

R: reel

M: 4/4

L: 1/8

K: G

GABG ABGA | BE (3EDE GEDE | GFGA BGBd | (3efg fg egdB |

GABG ADGA | BE (3EDE GEDE | GFGA BGBd | (3efg fg e2 ef ||

g2 fg edBc | d2 ed Bdef | g2 fg edBc | (3efg fg edef |

gefd edBc | d2 ed Bdef | (3efg fa gfed | ea (3aga gedB ||

           

ROAD TO RIO, THE. AKA and see “The Reel of Rio,” “The Rocky Road [3].”

           

ROAD TO SLIGO [1]. AKA and see “Daugherty’s Jig,” “Lark in the Morning [3],” "Trip to Sligo [1]," "Stealing Apples," “When I Parted.”

 

ROAD TO SLIGO [2]. Irish, Slip Jig. D Major (McNulty): B Flat Major (Kennedy, Kerr). Standard. AABBCC. Appears unrelated to version #1. Kennedy (Fiddler’s Tune-Book: Slip Jigs and Waltzes), 1999; No. 68, pg. 15. Kerr (Merry Melodies), vol. 4; No. 242, pg. 26. McNulty (Dance Music of Ireland), 1965; pg. 27.

